source/images/icons/icon-utility/external-link.svg

<?xml version="1.0" encoding="UTF-8"?>
<svg width="24px" height="24px" viewBox="0 0 24 24" version="1.1" xmlns="http://www.w3.org/2000/svg" xmlns:xlink="http://www.w3.org/1999/xlink">
    <!-- Generator: Sketch 55.2 (78181) - https://sketchapp.com -->
    <title>Icons/24px/External_link</title>
    <desc>Created with Sketch.</desc>
    <g id="Icons/24px/External_link" stroke="none" stroke-width="1" fill="none" fill-rule="evenodd">
        <path d="M20.5857864,2 L15,2 C14.4477153,2 14,1.55228475 14,1 C14,0.44771525 14.4477153,0 15,0 L23,0 C23.5522847,0 24,0.44771525 24,1 L24,9 C24,9.55228475 23.5522847,10 23,10 C22.4477153,10 22,9.55228475 22,9 L22,3.41421356 L12.7071068,12.7071068 C12.3165825,13.0976311 11.6834175,13.0976311 11.2928932,12.7071068 C10.9023689,12.3165825 10.9023689,11.6834175 11.2928932,11.2928932 L20.5857864,2 Z M19,12 C19,11.4477153 19.4477153,11 20,11 C20.5522847,11 21,11.4477153 21,12 L21,18 C21,19.6568542 19.6568542,21 18,21 L6,21 C4.34314575,21 3,19.6568542 3,18 L3,6 C3,4.34314575 4.34314575,3 6,3 L12,3 C12.5522847,3 13,3.44771525 13,4 C13,4.55228475 12.5522847,5 12,5 L6,5 C5.44771525,5 5,5.44771525 5,6 L5,18 C5,18.5522847 5.44771525,19 6,19 L18,19 C18.5522847,19 19,18.5522847 19,18 L19,12 Z" id="Icon" fill="#ADB5BD"></path>
    </g>
</svg>

<svg width="24" height="24">
    <title>
        Icons/24px/External_link
    </title>
    <path d="M20.586 2H15a1 1 0 0 1 0-2h8a1 1 0 0 1 1 1v8a1 1 0 0 1-2 0V3.414l-9.293 9.293a1 1 0 0 1-1.414-1.414L20.586 2zM19 12a1 1 0 0 1 2 0v6a3 3 0 0 1-3 3H6a3 3 0 0 1-3-3V6a3 3 0 0 1 3-3h6a1 1 0 0 1 0 2H6a1 1 0 0 0-1 1v12a1 1 0 0 0 1 1h12a1 1 0 0 0 1-1v-6z" fill="#ADB5BD" fill-rule="evenodd"/>
</svg>
